usr/share/icons/biglinux-icons-material-dark/16/actions/align-vertical-center.svg

<svg xmlns="http://www.w3.org/2000/svg" viewBox="0 0 16 16">
<defs id="defs3051">
<style id="current-color-scheme" type="text/css">
.ColorScheme-Text{color:#dedede}
</style>
</defs>
<path d="M3 3v4.5H2v1h1V13h4V8.5h2V11h4V8.5h1v-1h-1V5H9v2.5H7V3zm1 1h2v8H4zm6 2h2v4h-2z" class="ColorScheme-Text" style="fill:currentColor;fill-opacity:1;stroke:none"/>
</svg>

<svg xmlns="http://www.w3.org/2000/svg" viewBox="0 0 16 16">
  <defs id="defs3051">
    <style type="text/css" id="current-color-scheme">
      .ColorScheme-Text {
        color:#dedede;
      }
      </style>
  </defs>
 <path style="fill:currentColor;fill-opacity:1;stroke:none" 
       d="M 3 3 L 3 7.5 L 2 7.5 L 2 8.5 L 3 8.5 L 3 13 L 7 13 L 7 8.5 L 9 8.5 L 9 11 L 13 11 L 13 8.5 L 14 8.5 L 14 7.5 L 13 7.5 L 13 5 L 9 5 L 9 7.5 L 7 7.5 L 7 3 L 3 3 z M 4 4 L 6 4 L 6 12 L 4 12 L 4 4 z M 10 6 L 12 6 L 12 10 L 10 10 L 10 6 z "
     class="ColorScheme-Text"
     />
</svg>
